src/assets/question-icon.svg

<svg width="40" height="40" fill="none" xmlns="http://www.w3.org/2000/svg"><path fill-rule="evenodd" clip-rule="evenodd" d="M20 40c11.046 0 20-8.954 20-20S31.046 0 20 0 0 8.954 0 20s8.954 20 20 20zm-2.172-17.448c-.168 1.12.784 2.044 1.916 2.044h.94a1.05 1.05 0 001.048-.984c.114-1.052.566-1.972 1.352-2.758l1.26-1.24c.984-.99 1.672-1.888 2.066-2.694a5.91 5.91 0 00.59-2.598c0-2.01-.606-3.564-1.818-4.66C23.97 8.554 22.266 8 20.07 8c-2.176 0-3.894.58-5.16 1.742a5.68 5.68 0 00-1.586 2.56c-.368 1.208.72 2.262 1.98 2.262 1.068 0 1.866-.87 2.608-1.68.104-.114.206-.228.308-.336.468-.494 1.084-.74 1.85-.74 1.616 0 2.424.908 2.424 2.724 0 .602-.156 1.178-.466 1.726-.31.538-.938 1.242-1.88 2.112-.932.86-1.574 1.738-1.928 2.63a7.11 7.11 0 00-.392 1.552zm.114 5.222c-.466.462-.7 1.054-.7 1.774 0 .71.228 1.296.684 1.76.466.46 1.078.692 1.834.692s1.36-.232 1.818-.694c.466-.462.7-1.048.7-1.758 0-.72-.24-1.312-.716-1.774-.466-.474-1.068-.71-1.802-.71-.736 0-1.34.236-1.818.71z" fill="#a6a6a6"/></svg>

<svg width="40" height="40" viewBox="0 0 40 40" fill="none" xmlns="http://www.w3.org/2000/svg">
<path fill-rule="evenodd" clip-rule="evenodd" d="M20 40C31.046 40 40 31.046 40 20C40 8.954 31.046 0 20 0C8.954 0 0 8.954 0 20C0 31.046 8.954 40 20 40ZM17.828 22.552C17.66 23.672 18.612 24.596 19.744 24.596H20.684C20.9511 24.596 21.2081 24.4943 21.4028 24.3115C21.5975 24.1287 21.7152 23.8785 21.732 23.612C21.846 22.56 22.298 21.64 23.084 20.854L24.344 19.614C25.328 18.624 26.016 17.726 26.41 16.92C26.804 16.102 27 15.236 27 14.322C27 12.312 26.394 10.758 25.182 9.662C23.97 8.554 22.266 8 20.07 8C17.894 8 16.176 8.58 14.91 9.742C14.1606 10.4371 13.6127 11.3215 13.324 12.302C12.956 13.51 14.044 14.564 15.304 14.564C16.372 14.564 17.17 13.694 17.912 12.884C18.016 12.77 18.118 12.656 18.22 12.548C18.688 12.054 19.304 11.808 20.07 11.808C21.686 11.808 22.494 12.716 22.494 14.532C22.494 15.134 22.338 15.71 22.028 16.258C21.718 16.796 21.09 17.5 20.148 18.37C19.216 19.23 18.574 20.108 18.22 21C18.046 21.442 17.916 21.96 17.828 22.552ZM17.942 27.774C17.476 28.236 17.242 28.828 17.242 29.548C17.242 30.258 17.47 30.844 17.926 31.308C18.392 31.768 19.004 32 19.76 32C20.516 32 21.12 31.768 21.578 31.306C22.044 30.844 22.278 30.258 22.278 29.548C22.278 28.828 22.038 28.236 21.562 27.774C21.096 27.3 20.494 27.064 19.76 27.064C19.024 27.064 18.42 27.3 17.942 27.774Z" fill="#a6a6a6"/>
</svg>
